svg/emoji_u0034_20e3.svg

<svg enable-background="new 0 0 128 128" viewBox="0 0 128 128" xmlns="http://www.w3.org/2000/svg"><linearGradient id="b" x1="5.5161" x2="118.82" y1="5.2803" y2="119.05" gradientUnits="userSpaceOnUse"><stop stop-color="#81D4FA" offset="0"/><stop stop-color="#0094D6" offset="1"/></linearGradient><path d="m116 124h-104c-4.42 0-8-3.58-8-8v-104c0-4.42 3.58-8 8-8h104c4.42 0 8 3.58 8 8v104c0 4.42-3.58 8-8 8z" fill="url(#b)"/><g opacity=".2"><path d="m116 7c2.76 0 5 2.24 5 5v104c0 2.76-2.24 5-5 5h-104c-2.76 0-5-2.24-5-5v-104c0-2.76 2.24-5 5-5h104m0-3h-104c-4.42 0-8 3.58-8 8v104c0 4.42 3.58 8 8 8h104c4.42 0 8-3.58 8-8v-104c0-4.42-3.58-8-8-8z" fill="#424242"/></g><linearGradient id="a" x1="21.247" x2="106.25" y1="20.744" y2="106.74" gradientUnits="userSpaceOnUse"><stop stop-color="#C2ECFF" offset="0"/><stop stop-color="#BDEAFE" offset=".157"/><stop stop-color="#AEE3FA" offset=".3484"/><stop stop-color="#95D7F5" offset=".5578"/><stop stop-color="#73C7ED" offset=".7789"/><stop stop-color="#49B3E3" offset="1"/></linearGradient><path d="m101 109h-74c-4.42 0-8-3.58-8-8v-74c0-4.42 3.58-8 8-8h74c4.42 0 8 3.58 8 8v74c0 4.42-3.58 8-8 8z" fill="url(#a)"/><g opacity=".2"><path d="m78.15 26c1.14 0 2.06 0.92 2.06 2.06v44.8c0 1.14 0.92 2.06 2.06 2.06h5.34c1.14 0 2.06 0.92 2.06 2.06v6.07c0 1.14-0.92 2.06-2.06 2.06h-5.34c-1.14 0-2.06 0.92-2.06 2.06v12.8c0 1.14-0.92 2.06-2.06 2.06h-8.57c-1.14 0-2.06-0.92-2.06-2.06v-12.8c0-1.14-0.92-2.06-2.06-2.06h-28.81c-1.1 0-2-0.86-2.05-1.96l-0.24-5.11c-0.02-0.42 0.09-0.84 0.32-1.2l31.82-49.86c0.38-0.59 1.03-0.95 1.73-0.95h9.92m-26.79 48.88h14.11c1.14 0 2.06-0.92 2.06-2.06v-29.68l-0.94 1.67-16.97 26.92c-0.87 1.37 0.12 3.15 1.74 3.15m26.79-51.91h-9.92c-1.74 0-3.33 0.87-4.26 2.34l-31.83 49.86c-0.57 0.89-0.84 1.91-0.79 2.96l0.24 5.11c0.13 2.7 2.35 4.82 5.05 4.82h27.87v11.86c0 2.79 2.27 5.06 5.06 5.06h8.57c2.79 0 5.06-2.27 5.06-5.06v-11.86h4.39c2.79 0 5.06-2.27 5.06-5.06v-6.07c0-2.79-2.27-5.06-5.06-5.06h-4.39v-43.84c0-2.79-2.27-5.06-5.05-5.06zm-25.08 48.91 11.45-18.17v18.17h-11.45z" fill="#424242"/></g><path d="m82.26 74.91h5.34c1.14 0 2.06 0.92 2.06 2.06v6.07c0 1.14-0.92 2.06-2.06 2.06h-5.34c-1.14 0-2.06 0.92-2.06 2.06v12.8c0 1.14-0.92 2.06-2.06 2.06h-8.57c-1.14 0-2.06-0.92-2.06-2.06v-12.8c0-1.14-0.92-2.06-2.06-2.06h-28.8c-1.1 0-2-0.86-2.05-1.96l-0.24-5.11c-0.02-0.42 0.09-0.84 0.32-1.2l31.82-49.86c0.38-0.59 1.03-0.95 1.73-0.95h9.92c1.14 0 2.06 0.92 2.06 2.06v44.8c-0.01 1.11 0.91 2.03 2.05 2.03zm-30.9 0h14.11c1.14 0 2.06-0.92 2.06-2.06v-29.68l-0.94 1.67-16.97 26.92c-0.87 1.37 0.12 3.15 1.74 3.15z" fill="#FAFAFA"/></svg>

<svg width="128" height="128" style="enable-background:new 0 0 128 128;" xmlns="http://www.w3.org/2000/svg" xmlns:xlink="http://www.w3.org/1999/xlink">
  <g>
    <linearGradient id="SVGID_1_" gradientUnits="userSpaceOnUse" x1="5.5161" x2="118.8247" y1="5.2803" y2="119.0458">
      <stop offset="0" style="stop-color:#81D4FA"/>
      <stop offset="1" style="stop-color:#0094D6"/>
    </linearGradient>
    <path d="M116,124H12c-4.42,0-8-3.58-8-8V12c0-4.42,3.58-8,8-8h104c4.42,0,8,3.58,8,8v104 C124,120.42,120.42,124,116,124z" style="fill:url(#SVGID_1_);"/>
    <g style="opacity:0.2;">
      <path d="M116,7c2.76,0,5,2.24,5,5v104c0,2.76-2.24,5-5,5H12c-2.76,0-5-2.24-5-5V12c0-2.76,2.24-5,5-5H116 M116,4H12c-4.42,0-8,3.58-8,8v104c0,4.42,3.58,8,8,8h104c4.42,0,8-3.58,8-8V12C124,7.58,120.42,4,116,4L116,4z" style="fill:#424242;"/>
    </g>
    <linearGradient id="SVGID_2_" gradientUnits="userSpaceOnUse" x1="21.2471" x2="106.2471" y1="20.7441" y2="106.7441">
      <stop offset="0" style="stop-color:#C2ECFF"/>
      <stop offset="0.157" style="stop-color:#BDEAFE"/>
      <stop offset="0.3484" style="stop-color:#AEE3FA"/>
      <stop offset="0.5578" style="stop-color:#95D7F5"/>
      <stop offset="0.7789" style="stop-color:#73C7ED"/>
      <stop offset="1" style="stop-color:#49B3E3"/>
    </linearGradient>
    <path d="M101,109H27c-4.42,0-8-3.58-8-8V27c0-4.42,3.58-8,8-8h74c4.42,0,8,3.58,8,8v74 C109,105.42,105.42,109,101,109z" style="fill:url(#SVGID_2_);"/>
  </g>
  <g style="opacity:0.2;">
    <path d="M78.15,26c1.14,0,2.06,0.92,2.06,2.06v44.8c0,1.14,0.92,2.06,2.06,2.06h5.34 c1.14,0,2.06,0.92,2.06,2.06v6.07c0,1.14-0.92,2.06-2.06,2.06h-5.34c-1.14,0-2.06,0.92-2.06,2.06v12.8c0,1.14-0.92,2.06-2.06,2.06 h-8.57c-1.14,0-2.06-0.92-2.06-2.06v-12.8c0-1.14-0.92-2.06-2.06-2.06H36.65c-1.1,0-2-0.86-2.05-1.96l-0.24-5.11 c-0.02-0.42,0.09-0.84,0.32-1.2l31.82-49.86c0.38-0.59,1.03-0.95,1.73-0.95H78.15 M51.36,74.91h14.11c1.14,0,2.06-0.92,2.06-2.06 V43.17l-0.94,1.67L49.62,71.76C48.75,73.13,49.74,74.91,51.36,74.91 M78.15,23h-9.92c-1.74,0-3.33,0.87-4.26,2.34L32.14,75.2 c-0.57,0.89-0.84,1.91-0.79,2.96l0.24,5.11c0.13,2.7,2.35,4.82,5.05,4.82h27.87v11.86c0,2.79,2.27,5.06,5.06,5.06h8.57 c2.79,0,5.06-2.27,5.06-5.06V88.09h4.39c2.79,0,5.06-2.27,5.06-5.06v-6.07c0-2.79-2.27-5.06-5.06-5.06H83.2V28.06 C83.2,25.27,80.93,23,78.15,23L78.15,23z M53.07,71.91l11.45-18.17v18.17H53.07L53.07,71.91z" style="fill:#424242;"/>
  </g>
  <path d="M82.26,74.91h5.34c1.14,0,2.06,0.92,2.06,2.06v6.07c0,1.14-0.92,2.06-2.06,2.06h-5.34 c-1.14,0-2.06,0.92-2.06,2.06v12.8c0,1.14-0.92,2.06-2.06,2.06h-8.57c-1.14,0-2.06-0.92-2.06-2.06v-12.8 c0-1.14-0.92-2.06-2.06-2.06H36.65c-1.1,0-2-0.86-2.05-1.96l-0.24-5.11c-0.02-0.42,0.09-0.84,0.32-1.2l31.82-49.86 c0.38-0.59,1.03-0.95,1.73-0.95h9.92c1.14,0,2.06,0.92,2.06,2.06v44.8C80.2,73.99,81.12,74.91,82.26,74.91z M51.36,74.91h14.11 c1.14,0,2.06-0.92,2.06-2.06V43.17l-0.94,1.67L49.62,71.76C48.75,73.13,49.74,74.91,51.36,74.91z" style="fill:#FAFAFA;"/>
</svg>
